static/assets/images/tokens/bbusd.svg

<svg width="256" height="256" viewBox="0 0 256 256" fill="none" xmlns="http://www.w3.org/2000/svg">
<path fill-rule="evenodd" clip-rule="evenodd" d="M128 256C198.934 256 256 198.934 256 128C256 57.0662 198.934 0 128 0C57.0662 0 0 57.0662 0 128C0 198.934 57.0662 256 128 256Z" fill="#89775C"/>
<path fill-rule="evenodd" clip-rule="evenodd" d="M244 128C244 192.065 192.065 244 128 244C63.935 244 12 192.065 12 128C12 63.935 63.935 12 128 12C192.065 12 244 63.935 244 128ZM128 233.209C186.105 233.209 233.209 186.105 233.209 128C233.209 69.8945 186.105 22.7907 128 22.7907C69.8945 22.7907 22.7907 69.8945 22.7907 128C22.7907 186.105 69.8945 233.209 128 233.209Z" fill="white"/>
<path d="M125.465 185.253C117.134 185.253 108.984 184.158 101.016 181.968C95.2123 180.349 90.2341 178.43 86.0813 176.212C83.6198 174.897 82.7126 171.914 83.7193 169.311L89.5866 154.141C90.9834 150.53 95.3975 149.171 98.8708 150.882C101.817 152.334 105.007 153.594 108.441 154.663C114.598 156.442 120.635 157.332 126.551 157.332C132.346 157.332 136.331 156.648 138.504 155.279C140.798 153.91 141.945 152.063 141.945 149.736C141.945 147.546 140.858 145.972 138.685 145.014C136.633 143.919 133.856 143.098 130.354 142.55C126.974 142.003 123.231 141.387 119.126 140.703C115.021 140.018 110.856 139.129 106.63 138.034C102.525 136.802 98.7218 135.023 95.2205 132.696C91.8399 130.232 89.1234 126.947 87.0709 122.841C85.0184 118.735 83.9921 113.534 83.9921 107.238C83.9921 100.121 85.8031 93.8253 89.4252 88.3506C93.168 82.7391 98.601 78.3593 105.724 75.2113C112.848 71.9265 121.541 70.2841 131.803 70.2841C138.685 70.2841 145.627 71.1053 152.63 72.7477C157.798 73.8399 162.362 75.3644 166.322 77.3211C168.869 78.5793 169.82 81.6241 168.788 84.2709L162.918 99.3326C161.535 102.88 157.247 104.22 153.792 102.621C151.111 101.38 148.429 100.455 145.748 99.8475C140.919 98.6157 136.331 97.9998 131.984 97.9998C126.189 97.9998 122.084 98.7526 119.669 100.258C117.375 101.764 116.228 103.611 116.228 105.801C116.228 107.991 117.255 109.702 119.307 110.934C121.36 112.029 124.076 112.918 127.457 113.603C130.958 114.15 134.761 114.766 138.866 115.45C142.971 115.998 147.076 116.888 151.181 118.119C155.407 119.351 159.21 121.199 162.591 123.663C166.092 125.989 168.869 129.206 170.921 133.312C172.974 137.281 174 142.413 174 148.709C174 155.553 172.129 161.712 168.386 167.186C164.764 172.661 159.331 177.041 152.087 180.326C144.963 183.611 136.089 185.253 125.465 185.253Z" fill="white"/>
<path d="M125.465 185.253C122.464 185.253 119.487 185.111 116.533 184.827V201C116.533 204.314 119.22 207 122.533 207H133.91C137.223 207 139.91 204.314 139.91 201V184.054C135.521 184.853 130.706 185.253 125.465 185.253Z" fill="white"/>
<path d="M116.533 71.7245C121.164 70.7642 126.254 70.2841 131.803 70.2841C134.496 70.2841 137.198 70.4098 139.91 70.6613V54C139.91 50.6863 137.223 48 133.91 48H122.533C119.22 48 116.533 50.6863 116.533 54V71.7245Z" fill="white"/>
</svg>

<svg xmlns="http://www.w3.org/2000/svg" fill="none" viewBox="0 0 256 256"><path fill="#89775C" fill-rule="evenodd" d="M128 256c70.934 0 128-57.066 128-128S198.934 0 128 0 0 57.066 0 128s57.066 128 128 128" clip-rule="evenodd"/><path fill="#fff" fill-rule="evenodd" d="M244 128c0 64.065-51.935 116-116 116S12 192.065 12 128 63.935 12 128 12s116 51.935 116 116M128 233.209c58.105 0 105.209-47.104 105.209-105.209S186.105 22.79 128 22.79 22.79 69.895 22.79 128 69.895 233.209 128 233.209" clip-rule="evenodd"/><path fill="#fff" d="M125.465 185.253a91.8 91.8 0 0 1-24.449-3.285q-8.706-2.429-14.935-5.756c-2.461-1.315-3.368-4.298-2.362-6.901l5.868-15.17c1.396-3.611 5.81-4.97 9.284-3.259q4.419 2.178 9.57 3.781 9.236 2.669 18.11 2.669 8.693 0 11.953-2.053 3.441-2.053 3.441-5.543 0-3.285-3.26-4.722-3.078-1.642-8.331-2.464-5.07-.82-11.228-1.847a145 145 0 0 1-12.496-2.669 42.6 42.6 0 0 1-11.41-5.338q-5.07-3.696-8.15-9.855-3.078-6.159-3.078-15.603 0-10.676 5.433-18.887 5.614-8.418 16.299-13.14 10.686-4.927 26.079-4.927 10.323 0 20.827 2.464 7.752 1.638 13.692 4.573c2.547 1.258 3.498 4.303 2.466 6.95l-5.87 15.062c-1.383 3.547-5.671 4.887-9.126 3.288q-4.022-1.862-8.044-2.773Q138.504 98 131.984 98q-8.693 0-12.315 2.258-3.441 2.258-3.441 5.543t3.079 5.133q3.079 1.642 8.15 2.669 5.252.82 11.409 1.847a79.4 79.4 0 0 1 12.315 2.669q6.339 1.848 11.41 5.544 5.252 3.49 8.33 9.649 3.08 5.953 3.079 15.397 0 10.266-5.614 18.477-5.433 8.212-16.299 13.14-10.686 4.927-26.622 4.927"/><path fill="#fff" d="M125.465 185.253q-4.501 0-8.932-.426V201a6 6 0 0 0 6 6h11.377a6 6 0 0 0 6-6v-16.946q-6.584 1.199-14.445 1.199m-8.932-113.528q6.947-1.44 15.27-1.44 4.04 0 8.107.376V54a6 6 0 0 0-6-6h-11.377a6 6 0 0 0-6 6z"/></svg>
